X: 408
T:Petite camusette
N: Derived from Jos3007-Petite_camusette.krn
C: Josquin des Prez
%%abc-version 2.0
%%abcx-abcm2ps-target-version 5.9.1 (29 Sep 2008)
%%abc-creator hum2abc beta
%%abcx-conversion-date 2019/02/12 16:15:55
%%abc-edited-by Jesse Rodin
%%abc-edited-by Will Watson 09/09/2011
%%abcx-initial-encoding-date 2011/09/09/
%%humdrum-veritas 3711882662
%%humdrum-veritas-data 451558169
%%linebreak <none>
%%barnumbers 0
L: 1/4
M: 2/1
Q: 1/2=120
V: 1 clef=treble
V: 2 clef=treble
V: 3 clef=treble-8
V: 4 clef=treble-8
V: 5 clef=bass
V: 6 clef=bass
K: C
[V:1] z8 | 
[V:2] z8 | 
[V:3] z8 | 
[V:4] z8 | 
[V:5] z8 | 
[V:6] B,8 | 
[V:1] B8 | 
[V:2] z8 | 
[V:3] z8 | 
[V:4] z8 | 
[V:5] z8 | 
[V:6] E,4B,4 | 
[V:1] E4B4 | 
[V:2] B8 | 
[V:3] z8 | 
[V:4] z8 | 
[V:5] z8 | 
[V:6] z2E,2G,2G,2 | 
[V:1] c4B4 | 
[V:2] E4B4 | 
[V:3] z8 | 
[V:4] z8 | 
[V:5] E,8 | 
[V:6] C,D,E,F,G,A,B,G, | 
[V:1] A4G4 | 
[V:2] c4B4 | 
[V:3] z8 | 
[V:4] e8 | 
[V:5] A,,4E,4 | 
[V:6] A,4z4 | 
[V:1] z4z2c2 | 
[V:2] A4G4 | 
[V:3] e8 | 
[V:4] A4e4 | 
[V:5] z8 | 
[V:6] z2A,2C2C2 | 
[V:1] c2c2cdec | 
[V:2] z4z2A2 | 
[V:3] A4e4 | 
[V:4] f4e4 | 
[V:5] z2A,2C2C2 | 
[V:6] F,3G,A,4 | 
[V:1] d2A2z2A2 | 
[V:2] A2A2cdec | 
[V:3] f4e4 | 
[V:4] d4c4 | 
[V:5] F,3G,A,4 | 
[V:6] D,4z4 | 
[V:1] A2A2c3B | 
[V:2] d2A2z4 | 
[V:3] d4c4 | 
[V:4] z2d2e2e2 | 
[V:5] D,4z4 | 
[V:6] z2D,2A,2E,2 | 
[V:1] A2A2G4 | 
[V:2] z4z2G2 | 
[V:3] z2d2e2e2 | 
[V:4] c2A2B4 | 
[V:5] z2D,2G,2E,2 | 
[V:6] F,2F,2E,4 | 
[V:1] z8 | 
[V:2] A2A2G4 | 
[V:3] c2A2B4 | 
[V:4] A4z4 | 
[V:5] F,2F,2E,4 | 
[V:6] z2D,2G,2E,2 | 
[V:1] z4z2G2 | 
[V:2] A4G4 | 
[V:3] A4z4 | 
[V:4] z2d2e2e2 | 
[V:5] z2D,2G,2E,2 | 
[V:6] F,2F,2E,4 | 
[V:1] A2A2GABG | 
[V:2] z4z2B2 | 
[V:3] z2d2e2e2 | 
[V:4] c2A2B4 | 
[V:5] F,4E,4 | 
[V:6] z4z2E,2 | 
[V:1] A4z4 | 
[V:2] (3:2:6c3BA2^G2A2G2 | 
[V:3] c2A2B4 | 
[V:4] A4z4 | 
[V:5] A,,4z4 | 
[V:6] E,2F,2E,2E,2 | 
[V:1] z2A2c4 | 
[V:2] A4z2A2 | 
[V:3] A4z4 | 
[V:4] c4c4 | 
[V:5] z2A,,2A,4 | 
[V:6] A,,4z2A,,2 | 
[V:1] z2A2c4 | 
[V:2] c4z2A2 | 
[V:3] c4c4 | 
[V:4] z8 | 
[V:5] z2A,,2A,4 | 
[V:6] A,4z2A,,2 | 
[V:1] z2E2G4 | 
[V:2] c2c2B2B2 | 
[V:3] z8 | 
[V:4] z2c2d2e2 | 
[V:5] z4z2E,2 | 
[V:6] (3:2:5A,4A,2G,3F,G,2 | 
[V:1] z4z2B2 | 
[V:2] E3FG4 | 
[V:3] z2c2d2e2 | 
[V:4] c4B4 | 
[V:5] (3:2:5A,4A,2G,3F,G,2 | 
[V:6] A,4z2E,2 | 
[V:1] c2A2A2^G2 | 
[V:2] z4z2B2 | 
[V:3] c4B4 | 
[V:4] A4z4 | 
[V:5] A,4z2E,2 | 
[V:6] A,,2C,2D,2E,2 | 
[V:1] A2E2G4 | 
[V:2] c2c2B2B2 | 
[V:3] A4z4 | 
[V:4] z2c2d2e2 | 
[V:5] (3:2:5A,4A,2G,3F,G,2 | 
[V:6] A,,4z2E,2 | 
[V:1] z4z2B2 | 
[V:2] E3FG4 | 
[V:3] z2c2d2e2 | 
[V:4] c4B4 | 
[V:5] A,4z2E,2 | 
[V:6] (3:2:5A,4A,2G,3F,G,2 | 
[V:1] c2A2A2^G2 | 
[V:2] z8 | 
[V:3] c4B4 | 
[V:4] A4z4 | 
[V:5] A,,2C,2D,2E,2 | 
[V:6] A,4z4 | 
[V:1] A4z2C2 | 
[V:2] z2A2c3c | 
[V:3] A4z4 | 
[V:4] e4e2e2 | 
[V:5] A,,8 | 
[V:6] z2E,2A,2A,2 | 
[V:1] G2C2z2B2 | 
[V:2] B2A2G4 | 
[V:3] e4e2e2 | 
[V:4] e2e2e4 | 
[V:5] z4z2E,2 | 
[V:6] G,2A,2E,4 | 
[V:1] c3cB2A2 | 
[V:2] z2C2G2C2 | 
[V:3] e2e2e4 | 
[V:4] z8 | 
[V:5] (3:2:5A,4A,2G,3F,G,2 | 
[V:6] z4z2A,,2 | 
[V:1] G4z4 | 
[V:2] EFGEF3E | 
[V:3] z8 | 
[V:4] z2e2d2d2 | 
[V:5] E,4z2F,2 | 
[V:6] C,2C,2D,2D,2 | 
[V:1] z2A2A2A2 | 
[V:2] C4z4 | 
[V:3] z2e2d2d2 | 
[V:4] e2e2f3e | 
[V:5] E,2C,2D,2D,2 | 
[V:6] A,,4z4 | 
[V:1] c4d4 | 
[V:2] z4z2A2 | 
[V:3] e2e2f3e | 
[V:4] c4z4 | 
[V:5] A,,4A,4 | 
[V:6] A,4D,4 | 
[V:1] e4z2B2 | 
[V:2] c3cB2G2 | 
[V:3] c4z4 | 
[V:4] e8 | 
[V:5] A,,4E,4 | 
[V:6] A,4z4 | 
[V:1] c2A2z2c2 | 
[V:2] A4G4 | 
[V:3] e8 | 
[V:4] A4e4 | 
[V:5] z8 | 
[V:6] z2A,2C2C2 | 
[V:1] c2c2cdec | 
[V:2] z4z2A2 | 
[V:3] A4e4 | 
[V:4] f4e4 | 
[V:5] z2A,2C2C2 | 
[V:6] F,3G,A,4 | 
[V:1] d2A2z2A2 | 
[V:2] A2A2cdec | 
[V:3] f4e4 | 
[V:4] d4c4 | 
[V:5] F,3G,A,4 | 
[V:6] D,4z4 | 
[V:1] A2A2c3B | 
[V:2] d2A2z4 | 
[V:3] d4c4 | 
[V:4] z2d2e2e2 | 
[V:5] D,4z4 | 
[V:6] z2D,2A,2E,2 | 
[V:1] A2A2G4 | 
[V:2] z4z2G2 | 
[V:3] z2d2e2e2 | 
[V:4] c2A2B4 | 
[V:5] z2D,2G,2E,2 | 
[V:6] F,2F,2E,4 | 
[V:1] z8 | 
[V:2] A2A2G4 | 
[V:3] c2A2B4 | 
[V:4] A4z4 | 
[V:5] F,2F,2E,4 | 
[V:6] z2D,2G,2E,2 | 
[V:1] z4z2G2 | 
[V:2] A4G4 | 
[V:3] A4z4 | 
[V:4] z2d2e2e2 | 
[V:5] z2D,2G,2E,2 | 
[V:6] F,2F,2E,4 | 
[V:1] A2A2GABG | 
[V:2] z4z2B2 | 
[V:3] z2d2e2e2 | 
[V:4] c2A2B4 | 
[V:5] F,4E,4 | 
[V:6] z4z2E,2 | 
[V:1] A4z2B2 | 
[V:2] (3:2:6c3BA2^G2A2G2 | 
[V:3] c2A2B4 | 
[V:4] A4z4 | 
[V:5] A,,4z2E,2 | 
[V:6] E,2F,2E,2E,2 | 
[V:1] c2A2c3B | 
[V:2] A2F2E2C2 | 
[V:3] A4z4 | 
[V:4] A8- | 
[V:5] E,2D,2E,4 | 
[V:6] A,,2D,2C,2A,,2 | 
[V:1] AGF4ED | 
[V:2] D4D4 | 
[V:3] A8- | 
[V:4] A8- | 
[V:5] F,3D,F,4 | 
[V:6] D,4D,4 | 
[V:1] C8 |]  
[V:2] E8 |]  
[V:3] A8 |]  
[V:4] A8 |]  
[V:5] E,8 |]  
[V:6] A,,8 |]  



